message-alert-outline.svg

<svg fill="currentColor" viewBox="0 0 24 24"><path d="M13 10h-2V6h2zm0 2h-2v2h2zm9-8v12a2 2 0 0 1-2 2H6l-4 4V4a2 2 0 0 1 2-2h16a2 2 0 0 1 2 2m-2 0H4v13.2L5.2 16H20z"/></svg>

<svg  viewBox="0 0 24 24" fill="currentColor"><path  d="M13,10H11V6H13V10M13,12H11V14H13V12M22,4V16A2,2 0 0,1 20,18H6L2,22V4A2,2 0 0,1 4,2H20A2,2 0 0,1 22,4M20,4H4V17.2L5.2,16H20V4Z"/></svg>
